src/assets/svg/icons/fa/nuevos/classic/duotone/face-cowboy-hat classic duotone.svg

<svg xmlns="http://www.w3.org/2000/svg" viewBox="0 0 512 512"><defs><style>.fa-secondary{opacity:.4}</style></defs><path class="fa-primary" d="M133.6 109.8C148.6 64.93 179.2 0 216 0C225.1 0 233.9 4.003 242.1 10.71C250.1 17.16 261.9 17.16 269.9 10.71C278.1 4.003 286.9 0 296 0C332.8 0 363.4 64.93 378.4 109.8C411.1 99.32 441.1 84.62 466.9 66.75C469.4 64.98 472.3 64 475.3 64C484.3 64 490.1 72.25 488.2 80.75C461.2 163.2 367.5 224 256 224C144.5 224 50.77 163.2 23.8 80.75C21.02 72.25 27.72 64 36.66 64C39.7 64 42.64 64.99 45.1 66.75C70.04 84.62 100 99.32 133.6 109.8H133.6zM216 296C216 309.3 205.3 320 192 320C178.7 320 168 309.3 168 296C168 282.7 178.7 272 192 272C205.3 272 216 282.7 216 296zM296 295.1C296 282.7 306.7 271.1 320 271.1C333.3 271.1 344 282.7 344 295.1C344 309.3 333.3 319.1 320 319.1C306.7 319.1 296 309.3 296 295.1z"/><path class="fa-secondary" d="M48 303.1C48 254.6 65.2 209.3 93.93 173.6C136.6 204.9 193.5 223.1 256 223.1C318.5 223.1 375.4 204.9 418.1 173.6C446.8 209.3 464 254.6 464 303.1C464 418.9 370.9 512 256 512C141.1 512 48 418.9 48 303.1zM256.2 376.8C223.5 376.8 192.5 372.5 164.6 364.7C152.2 361.2 140.3 371.1 146 383.5C166.2 424.1 207.1 452 256.2 452C304.5 452 346.2 424.1 366.4 383.5C372.1 371.1 360.2 361.2 347.8 364.7C319.9 372.5 288.9 376.8 256.2 376.8zM192 271.1C178.7 271.1 168 282.7 168 295.1C168 309.3 178.7 319.1 192 319.1C205.3 319.1 216 309.3 216 295.1C216 282.7 205.3 271.1 192 271.1zM320 319.1C333.3 319.1 344 309.3 344 295.1C344 282.7 333.3 271.1 320 271.1C306.7 271.1 296 282.7 296 295.1C296 309.3 306.7 319.1 320 319.1z"/></svg>

<svg xmlns="http://www.w3.org/2000/svg" viewBox="0 0 512 512"><!--! Font Awesome Pro 6.4.0 by @fontawesome - https://fontawesome.com License - https://fontawesome.com/license (Commercial License) Copyright 2023 Fonticons, Inc. --><defs><style>.fa-secondary{opacity:.4}</style></defs><path class="fa-primary" d="M133.6 109.8C148.6 64.9 179.2 0 216 0c9.1 0 17.9 4 26.1 10.7c7.9 6.5 19.8 6.5 27.7 0C278.1 4 286.9 0 296 0c36.8 0 67.4 64.9 82.4 109.8C412 99.3 442 84.6 466.9 66.8c2.5-1.8 5.4-2.8 8.4-2.8c8.9 0 15.6 8.3 12.9 16.7C461.2 163.2 367.5 224 256 224S50.8 163.2 23.8 80.7C21 72.3 27.7 64 36.7 64c3 0 6 1 8.4 2.8C70 84.6 100 99.3 133.6 109.8zM168 296a24 24 0 1 1 48 0 24 24 0 1 1 -48 0zm152-24a24 24 0 1 1 0 48 24 24 0 1 1 0-48z"/><path class="fa-secondary" d="M48 304c0-49.4 17.2-94.7 45.9-130.4C136.6 204.9 193.5 224 256 224s119.4-19.1 162.1-50.4c28.7 35.7 45.9 81 45.9 130.4c0 114.9-93.1 208-208 208S48 418.9 48 304zm299.8 60.7c-27.9 7.8-59 12.1-91.6 12.1s-63.7-4.3-91.6-12.1c-12.4-3.5-24.3 7.3-18.6 18.8C166.2 424.1 208 452 256.2 452s90-27.9 110.2-68.6c5.7-11.5-6.2-22.2-18.6-18.8zM216 296a24 24 0 1 0 -48 0 24 24 0 1 0 48 0zm104 24a24 24 0 1 0 0-48 24 24 0 1 0 0 48z"/></svg>
